libs/ui/packages/crypto-icons/src/svg/BAL.svg

<svg width="24" height="24" viewBox="0 0 24 24" fill="none">
<path d="M12.069 17.397C7.8885 17.397 4.5 16.1895 4.5 14.571C4.5 13.7265 5.4225 12.966 6.9 12.429C8.0535 13.1693 9.98775 13.5488 12.1815 13.5488C14.3235 13.5488 16.2165 13.086 17.379 12.3773C18.7733 12.9075 19.6388 13.6478 19.6388 14.4638C19.6388 16.0845 16.2502 17.397 12.069 17.397Z" fill="white"/>
<path d="M12.114 13.185C8.9445 13.185 6.375 12.1913 6.375 10.965C6.375 10.2855 7.167 9.6765 8.409 9.27075C9.2955 9.7335 10.6238 10.029 12.114 10.029C13.6043 10.029 14.9325 9.7335 15.819 9.2715C17.0633 9.67875 17.853 10.2855 17.853 10.965C17.8553 12.1913 15.285 13.185 12.114 13.185Z" fill="white"/>
<path d="M12.093 9.66C9.64276 9.66 7.65601 8.8395 7.65601 7.83C7.65601 6.82125 9.64351 6 12.093 6C14.5425 6 16.53 6.82125 16.53 7.83C16.53 8.8395 14.5425 9.66 12.093 9.66Z" fill="white"/>
<path d="M11.9996 17.6985C7.81913 17.6985 4.43063 16.491 4.43063 14.8725C4.43063 14.028 5.35313 13.2675 6.83063 12.7305C7.98413 13.4708 9.91838 13.8503 12.1121 13.8503C14.2541 13.8503 16.1471 13.3875 17.3096 12.6788C18.7039 13.209 19.5694 13.9493 19.5694 14.7653C19.5694 16.386 16.1809 17.6985 11.9996 17.6985Z" fill="#1E1E1E"/>
<path d="M12.0446 13.4865C8.87513 13.4865 6.30563 12.4928 6.30563 11.2665C6.30563 10.587 7.09763 9.97802 8.33963 9.57227C9.22613 10.035 10.5544 10.3305 12.0446 10.3305C13.5349 10.3305 14.8631 10.035 15.7496 9.57302C16.9939 9.98027 17.7836 10.587 17.7836 11.2665C17.7859 12.4928 15.2156 13.4865 12.0446 13.4865Z" fill="#1E1E1E"/>
<path d="M12.0236 9.96151C9.57339 9.96151 7.58664 9.14101 7.58664 8.13151C7.58664 7.12276 9.57414 6.30151 12.0236 6.30151C14.4731 6.30151 16.4606 7.12276 16.4606 8.13151C16.4606 9.14101 14.4731 9.96151 12.0236 9.96151Z" fill="#1E1E1E"/>
</svg>

<svg width="24" height="24" viewBox="0 0 24 24" fill="none"><path fill="#fff" d="M12.069 17.397c-4.18 0-7.569-1.207-7.569-2.826 0-.844.923-1.605 2.4-2.142 1.153.74 3.088 1.12 5.281 1.12 2.143 0 4.036-.463 5.198-1.172 1.394.53 2.26 1.27 2.26 2.087 0 1.62-3.389 2.933-7.57 2.933"/><path fill="#fff" d="M12.114 13.185c-3.17 0-5.739-.994-5.739-2.22 0-.68.792-1.288 2.034-1.694.886.462 2.215.758 3.705.758s2.818-.296 3.705-.758c1.244.408 2.034 1.015 2.034 1.694.002 1.226-2.568 2.22-5.739 2.22"/><path fill="#fff" d="M12.093 9.66c-2.45 0-4.437-.82-4.437-1.83C7.656 6.821 9.644 6 12.093 6s4.437.821 4.437 1.83-1.988 1.83-4.437 1.83"/><path fill="#1e1e1e" d="M12 17.699c-4.18 0-7.57-1.208-7.57-2.827 0-.844.923-1.604 2.4-2.142 1.154.74 3.088 1.12 5.282 1.12 2.142 0 4.035-.463 5.198-1.171 1.394.53 2.26 1.27 2.26 2.086 0 1.621-3.39 2.933-7.57 2.933"/><path fill="#1e1e1e" d="M12.045 13.487c-3.17 0-5.74-.994-5.74-2.22 0-.68.793-1.289 2.035-1.695.886.463 2.214.759 3.705.759 1.49 0 2.818-.296 3.705-.758 1.244.407 2.034 1.014 2.034 1.694.002 1.226-2.568 2.22-5.74 2.22"/><path fill="#1e1e1e" d="M12.024 9.962c-2.45 0-4.437-.821-4.437-1.83s1.987-1.83 4.437-1.83 4.437.82 4.437 1.83c0 1.009-1.988 1.83-4.437 1.83"/></svg>
